X: 1
T: No_108_Doctor's_Song.krn
N: Derived from No_108_Doctor's_Song.krn
%%abc-version 2.0
%%abcx-abcm2ps-target-version 5.9.1 (29 Sep 2008)
%%abc-creator hum2abc beta
%%abcx-conversion-date 2019/03/15 08:29:13
%%humdrum-veritas 4096966344
%%humdrum-veritas-data 312375075
%%linebreak <none>
%%barnumbers 0
L: 1/8
M: 3/4
%%staves {1 2}
V: 1 clef=bass
V: 2 clef=bass
K: Ab
[V:1] F [I:setbarnb 1]| 
[V:2] z | 
[V:1] (F2=E)C C3/C/ ||  
[V:2] G,,G,, G,,G,, G,,G,, ||  
[V:1] [M:2/4]C3/C/C2 | 
[V:2] [M:2/4]z4 | 
[V:1] E3E | 
[V:2] z4 | 
[V:1] E3/E/ (E/C)C/ | 
[V:2] z4 | 
[V:1] C3/C/C2 ||  
[V:2] z4 ||  
[V:1] [M:3/4]C6 | 
[V:2] [M:3/4]z6 | 
[V:1] (E/C3/)(E2C)A, | 
[V:2] z6 | 
[V:1] (A, (3F,/)F,/F,/ F,3/A,/A,2 | 
[V:2] z6 | 
[V:1] (A,2F,2)(C/A,3/) | 
[V:2] z6 | 
[V:1] (A,2F,)F, (3(F,/E,)E, ||  
[V:2] z6 ||  
[V:1] [M:2/4](E,/C,)C,/C,2 | 
[V:2] [M:2/4]z4 | 
[V:1] E,3F, | 
[V:2] z4 | 
[V:1] (F,2E,)F, ||  
[V:2] z4 ||  
[V:1] [M:3/4](3(F,/E,)E, (E,/C,)C,/C,2 | 
[V:2] [M:3/4]z6 | 
[V:1] [M:2/4]C,4 |]  
[V:2] [M:2/4]z4 |]  



